images/renBCH.svg

<svg height="250" viewBox="0 0 250 250" width="250" xmlns="http://www.w3.org/2000/svg"><path d="m139.753906 96.515625c3.941406 15.421875-20.808594 19.824219-28.523437 21.792969l-7.039063-27.324219c7.746094-1.96875 31.371094-10.5625 35.492188 5.53125m17.289062 40.808594c4.332032 17.007812-25.246094 22.464843-34.542968 24.859375l-7.570313-30.140625c9.261719-2.359375 37.675781-12.464844 42.253906 5.28125m6.796875-53.519531c-5.707031-15.8125-21.128906-17.609376-39.15625-14.753907l-5.738281-22.5-13.699219 3.519531 5.597656 21.9375c-3.519531.914063-7.253906 1.902344-10.878906 2.921876l-5.808594-22.113282-13.699218 3.523438 5.742187 22.535156c-2.960937.84375-5.847656 1.617188-8.699219 2.355469l-18.875 4.789062 3.734376 14.648438s10.105468-2.78125 9.929687-2.535157c3.695313-1.457031 7.875.3125 9.402344 3.980469l6.582031 25.492188c.488281-.117188.980469-.199219 1.480469-.246094l-1.445313.351563 9.085938 35.914062c.472656 2.730469-1.332032 5.328125-4.050782 5.847656.210938 0-9.964843 2.535156-9.964843 2.535156l1.445312 17.042969 17.816407-4.542969 9.964843-2.5 5.808594 22.746094 13.664063-3.523437-5.917969-22.355469c3.523437-.8125 7.324219-1.726562 10.953125-2.679688l5.703125 22.429688 13.699219-3.519531-5.777344-22.570313c22.746094-7.042968 37.324218-17.113281 33.804687-39.226562-2.851562-17.816406-12.921875-23.484375-26.761719-23.308594 7.042969-6.054688 10.105469-14.472656 5.878907-26.019531m71.304687-18.136719c32.667969 60.785156 9.886719 136.542969-50.894531 169.222656-60.777344 32.683594-136.539063 9.914063-169.230469-50.859375-32.691406-60.773437-9.9375-136.539062 50.828125-169.242187 60.722657-32.554688 136.335938-9.808594 169.015625 50.84375" fill="#87888c" fill-rule="evenodd"/></svg>

<svg xmlns="http://www.w3.org/2000/svg" xmlns:xlink="http://www.w3.org/1999/xlink" width="250px" height="250px" viewBox="0 0 250 250" version="1.1">
<g id="surface1">
<path style=" stroke:none;fill-rule:evenodd;fill:rgb(52.941179%,53.333336%,54.901963%);fill-opacity:1;" d="M 139.753906 96.515625 C 143.695312 111.9375 118.945312 116.339844 111.230469 118.308594 L 104.191406 90.984375 C 111.9375 89.015625 135.5625 80.421875 139.683594 96.515625 M 156.972656 137.324219 C 161.304688 154.332031 131.726562 159.789062 122.429688 162.183594 L 114.859375 132.042969 C 124.121094 129.683594 152.535156 119.578125 157.113281 137.324219 M 163.910156 83.804688 C 158.203125 67.992188 142.78125 66.195312 124.753906 69.050781 L 119.015625 46.550781 L 105.316406 50.070312 L 110.914062 72.007812 C 107.394531 72.921875 103.660156 73.910156 100.035156 74.929688 L 94.226562 52.816406 L 80.527344 56.339844 L 86.269531 78.875 C 83.308594 79.71875 80.421875 80.492188 77.570312 81.230469 L 58.695312 86.019531 L 62.429688 100.667969 C 62.429688 100.667969 72.535156 97.886719 72.359375 98.132812 C 76.054688 96.675781 80.234375 98.445312 81.761719 102.113281 L 88.34375 127.605469 C 88.832031 127.488281 89.324219 127.40625 89.824219 127.359375 L 88.378906 127.710938 L 97.464844 163.625 C 97.9375 166.355469 96.132812 168.953125 93.414062 169.472656 C 93.625 169.472656 83.449219 172.007812 83.449219 172.007812 L 84.894531 189.050781 L 102.710938 184.507812 L 112.675781 182.007812 L 118.484375 204.753906 L 132.148438 201.230469 L 126.230469 178.875 C 129.753906 178.0625 133.554688 177.148438 137.183594 176.195312 L 142.886719 198.625 L 156.585938 195.105469 L 150.808594 172.535156 C 173.554688 165.492188 188.132812 155.421875 184.613281 133.308594 C 181.761719 115.492188 171.691406 109.824219 157.851562 110 C 164.894531 103.945312 167.957031 95.527344 163.730469 83.980469 M 235.035156 65.84375 C 267.703125 126.628906 244.921875 202.386719 184.140625 235.066406 C 123.363281 267.75 47.601562 244.980469 14.910156 184.207031 C -17.78125 123.433594 4.972656 47.667969 65.738281 14.964844 C 126.460938 -17.589844 202.074219 5.15625 234.753906 65.808594 "/>
</g>
</svg>
